src/symbolic/apps/libreoffice-calc-symbolic.svg

<svg xmlns="http://www.w3.org/2000/svg" width="16" height="16" version="1.1">
 <path style="fill:#444444" d="M -6,9 H -4 V 12 H -6 Z" transform="scale(-1,1)"/>
 <path style="fill:#444444" d="M 10,10 H 12 V 12 H 10 Z"/>
 <path style="fill:#444444" d="M -9,7 H -7 V 12 H -9 Z" transform="scale(-1,1)"/>
 <path style="fill:#444444" d="M 2,0 C 1.4477,0 1,0.44772 1,1 V 15 C 1,15.552 1.4477,16 2,16 H 14 C 14.556,16 15,15.548 15,15 V 7.5 C 15,7.2426 14.879,6.8786 14.69,6.69 L 8.28,0.275 C 8.0925,0.08746 7.7701,0 7.5,0 Z M 3,2 H 7 L 13,8 V 14 H 3 Z"/>
 <path style="fill:#444444" d="M 11.5,0 C 10.948,0 10.807,0.5146 11.146,0.85352 L 14.146,3.8535 C 14.497,4.2041 15,3.942 15,3.5 V 0.5 C 15,0.21996 14.78,0 14.5,0 Z"/>
</svg>

<svg xmlns="http://www.w3.org/2000/svg" width="16" height="16"><path d="M6 9H4v3h2zM10 10h2v2h-2zM9 7H7v5h2z" fill="#444"/><path d="M2 0a1 1 0 0 0-1 1v14a1 1 0 0 0 1 1h12a1 1 0 0 0 1-1V7.5c0-.257-.121-.621-.31-.81L8.28.275C8.092.087 7.77 0 7.5 0zm1 2h4l6 6v6H3zM11.5 0c-.552 0-.693.515-.354.854l3 3c.351.35.854.088.854-.354v-3c0-.28-.22-.5-.5-.5z" fill="#444"/></svg>
